icon-svg/twinkly-candies-candles.svg

<svg xmlns="http://www.w3.org/2000/svg" fill="#44739e" viewBox="0 0 24 24"><path d="M21.792 9.637 22 9.454l-.249-.284-.209.183-.542.479a4.5 4.5 0 0 0-.106-.645 4.56 4.56 0 0 0-.278-.812l.842-.739.208-.183-.249-.284-.208.183-.768.675a5.04 5.04 0 0 0-.825-1.089l.692-.607.209-.184-.249-.283-.209.183-.718.631a6.63 6.63 0 0 0-1.255-.87l.651-.571.209-.183-.246-.284-.209.183-.766.673a5 5 0 0 0-.35-.147 6.73 6.73 0 0 0-1.23-.329l.626-.55.208-.183-.249-.284-.208.184-.87.764a6.7 6.7 0 0 0-1.332-.013l.457-.4.208-.183-.255-.285-.208.183-.912.8a3.54 3.54 0 0 0-1.089.447l.163-.274.142-.238-.326-.192-.141.238-.677 1.136.1.058a2.867 2.867 0 0 0-.4 1.788l-.185.163.239.272a5.6 5.6 0 0 0 .159.667 3.7 3.7 0 0 0 .351.816l-.183.16.249.284.145-.128a5.7 5.7 0 0 0 .77.8c.142.128.28.254.412.388l-.153.134.249.284.153-.134a2.66 2.66 0 0 1 .455.861 3.47 3.47 0 0 1 .138.639l-.268.235.249.284.048-.042a4.56 4.56 0 0 1-.281 1.559l-.021.057-.331.29.133.152a3.47 3.47 0 0 1-.946 1.163l.257-.637.1-.258-.35-.14-.1.257-.44 1.1a3.027 3.027 0 0 1-1.647.2l.765-.672.208-.183-.249-.283-.209.183-.955.838a1.86 1.86 0 0 1-.636-.388 1.59 1.59 0 0 1-.422-.678l.913-.8.208-.183-.249-.284-.208.183-.762.669a9.4 9.4 0 0 1-.079-1.174q-.009-.3-.017-.586l.881-.774.208-.183-.249-.284-.208.183-.645.567c-.016-.606-.028-1.129-.038-1.581l.859-.754.208-.183-.249-.284-.208.183-.621.545v-.231c-.009-.417-.016-.757-.024-1.04l.776-.682.209-.183-.249-.284-.209.183-.543.478a3.76 3.76 0 0 0-.2-1.245 5.5 5.5 0 0 0-.087-.233l.771-.677.209-.183-.249-.284-.209.183-.68.6a6.68 6.68 0 0 0-.8-1.277l.9-.793.209-.183-.25-.283-.204.177-.9.787a4.65 4.65 0 0 0-1.264-1.025l.7-.617.208-.183L6.7 4.37l-.208.183-.835.733a1.85 1.85 0 0 0-1-.086 1.73 1.73 0 0 0-.613.269l.135-.347.1-.258-.352-.137-.1.258-.48 1.215A3.58 3.58 0 0 0 2.8 7.682l-.216.19.2.224A3.445 3.445 0 0 0 3.276 9.7l-.058.051.25.284.01-.009a11 11 0 0 0 .672.882 4.6 4.6 0 0 0 .458.49l-.116.1.249.283.159-.139a2.74 2.74 0 0 1 .609.637 5.5 5.5 0 0 1 .532.9l-.192.169.249.284.095-.084a3.984 3.984 0 0 1 .229 1.761l-.279.245.211.24a3.8 3.8 0 0 1-.279.905l-.581.51.151.172a2.76 2.76 0 0 1-.515.47 2.86 2.86 0 0 1-.574.312l.454-.4.208-.183-.249-.284-.208.183-1 .875a3.86 3.86 0 0 1-1.361-.097l.86-.756.209-.183-.25-.284-.208.183-1 .875.054.063-.013-.006L2 18.3a4.04 4.04 0 0 0 1.894.212l.121.137.238-.21a2.96 2.96 0 0 0 .969-.447 2.88 2.88 0 0 0 .575-.536l.942-.827.208-.183-.247-.286-.208.183-.149.13a4.25 4.25 0 0 0 .187-.747l.86-.755.208-.183-.251-.288-.208.183-.547.48a4.15 4.15 0 0 0-.271-1.723l.773-.679.208-.183-.249-.278-.208.183-.679.6a5.7 5.7 0 0 0-.528-.889 2.89 2.89 0 0 0-.617-.651l.716-.628.208-.183-.245-.289-.209.183-.759.668a4.4 4.4 0 0 1-.455-.486A10.5 10.5 0 0 1 3.6 9.92l.864-.759.208-.183-.25-.278-.208.183-.814.711a3.26 3.26 0 0 1-.46-1.533l.889-.78.208-.181-.249-.284L3.58 7l-.594.522a3.42 3.42 0 0 1 .5-1.242l.2.079.231-.589a1.68 1.68 0 0 1 .763-.412 1.66 1.66 0 0 1 .833.051l-.025.022.249.283.168-.147a4.02 4.02 0 0 1 .931.668 6.44 6.44 0 0 1 1.385 1.919l-.19.168.249.284.1-.086c.022.057.043.115.063.173a3.96 3.96 0 0 1 .191 1.328l-.3.262.249.283.064-.056c.006.255.013.553.02.907l.008.365-.22.193.229.261c.011.463.023 1 .04 1.619l-.2.172.207.234q.008.261.015.54a8.4 8.4 0 0 0 .1 1.292l-.093.082.154.175a1.784 1.784 0 0 0 .491.829 2.066 2.066 0 0 0 .85.474l.1.119.082-.072a3.19 3.19 0 0 0 1.818-.166l.274.11.129-.32a3.42 3.42 0 0 0 1.168-1.306l.995-.874.209-.184-.249-.283-.209.183-.422.371a4.68 4.68 0 0 0 .216-1.54l.791-.7.209-.183-.249-.283-.209.183-.584.513a3.54 3.54 0 0 0-.13-.562 2.85 2.85 0 0 0-.486-.918l.723-.635.208-.183-.249-.283-.208.183-.724.635c-.135-.139-.278-.268-.424-.4a5.5 5.5 0 0 1-.756-.786l.73-.642.208-.183-.249-.284-.208.183-.691.607a3.54 3.54 0 0 1-.321-.753 5.4 5.4 0 0 1-.166-.729l.861-.756.208-.183-.249-.284-.208.184-.656.575a2.676 2.676 0 0 1 .376-1.571l.09.053.3-.505a3.07 3.07 0 0 1 1.3-.643l.169.193.329-.289c.077-.01.153-.019.226-.026a6.54 6.54 0 0 1 1.227 0l.213.244.217-.19a6.76 6.76 0 0 1 1.327.342c.062.024.156.061.275.114l-.1.087.249.283.217-.191a6.45 6.45 0 0 1 1.262.863l-.157.138.249.284.184-.162a4.9 4.9 0 0 1 .822 1.091l-.106.093.249.283.029-.025a4.36 4.36 0 0 1 .249.739 4.4 4.4 0 0 1 .111.739l-.3.265.249.284.057-.05a5 5 0 0 1-.211 1.2l-.352.31.174.2a6.86 6.86 0 0 1-.607 1.157l-.509.447.1.117c-.174.219-.3.348-.32.37a5.1 5.1 0 0 1-.461.417l.221-.828.072-.268-.365-.1-.071.268-.34 1.27a9.8 9.8 0 0 1-.869.476c-.158.08-.31.157-.456.238l.187-.285.153-.232-.316-.208-.152.232-.728 1.108.041.026a2.08 2.08 0 0 0-.333.581 2.95 2.95 0 0 0-.188 1.117l-.249.218.249.284.047-.041a2 2 0 0 0 .613 1.166l-.166.145.249.283.25-.219a2.4 2.4 0 0 0 .981.188 3.5 3.5 0 0 0 .532-.042l.064.073.121-.106a4.26 4.26 0 0 0 1.3-.5l-.014.052.364.1.13-.475a4.28 4.28 0 0 0 .9-.948l.28.03.143-1.318.03-.275-.376-.041-.03.276-.127 1.18h-.008a4.1 4.1 0 0 1-.743.838l.148-.54.073-.268-.364-.1-.073.268-.275 1a4.16 4.16 0 0 1-1.106.5l.619-.544.208-.183-.249-.284-.208.183-1 .875.059.067a2.61 2.61 0 0 1-1.256-.118l.615-.54.208-.183-.249-.284-.208.183-.71.624a1.862 1.862 0 0 1-.591-1.185l.807-.709.208-.183-.249-.283-.209.183-.584.513a2.74 2.74 0 0 1 .174-.917 1.94 1.94 0 0 1 .318-.55l.142.093.339-.516a7 7 0 0 1 .729-.4 9.2 9.2 0 0 0 .991-.555l.168.045.053-.2a5.3 5.3 0 0 0 .643-.558c.02-.021.142-.147.313-.36l.04.046.995-.875L20.8 13l-.249-.284-.209.183-.095.084a6.7 6.7 0 0 0 .383-.808l.9-.794.208-.183-.249-.284-.208.183-.427.375a5.02 5.02 0 0 0 .157-1.157zm-.047-.4.188.214-.133.119-.188-.214Zm-.336-2 .188.214-.136.119-.188-.214Zm-1.149-1.3.188.213-.136.12-.188-.214Zm-1.571-1.1.188.214-.136.119-.188-.214ZM16.72 4.2l.188.214-.136.119-.188-.213Zm-2 .067.188.214-.136.119-.187-.214ZM11.305 16.5l.188.214-.136.119-.188-.213Zm-1.35-1.313.188.214-.136.119-.187-.22Zm-.228-2.148.187.214-.135.119-.188-.214Zm-.074-2.052.188.214-.136.119-.187-.22Zm-.121-1.695.188.214-.136.119-.184-.214Zm-.3-1.961.188.214-.136.119-.191-.214ZM8.4 5.575l.188.214-.136.12-.184-.209ZM6.692 4.437l.188.214-.136.119-.188-.214ZM4.964 17.372l.188.214-.136.119-.188-.214ZM3.215 17.1l.188.214-.136.119-.188-.214Zm3.477-.874.188.213-.136.12-.188-.214Zm.649-1.656.188.214-.136.119-.187-.214Zm-.294-2.206.188.214-.135.122-.188-.214ZM5.69 10.51l.188.214-.136.119-.188-.214ZM4.417 8.761l.188.214-.136.119-.188-.213Zm-.634-1.88.187.219-.135.119L3.647 7Zm.168-2.093.265.1-.066.169-.265-.1ZM12.8 16.079l.264.106-.064.168-.265-.107Zm1.976-1.332.188.213-.136.12-.188-.214zm.336-2.149.188.214-.136.12-.188-.214zm-.727-1.885.188.214-.135.12-.188-.214zm-1.419-1.476.187.214-.135.119-.188-.214ZM12.4 7.322l.188.214-.136.119-.187-.214Zm.118-2.331.244.146-.092.155-.245-.145Zm6.113 8.555.275.074-.047.174-.275-.073zm2.388 3.162.283.031-.019.179-.283-.03ZM19.958 18.1l.275.075-.048.175-.275-.075zm-.914.764.188.214-.136.119-.188-.214zm-1.827 0 .188.214-.136.119-.187-.214zm-.743-1.554.188.214-.136.12-.188-.214zm.426-2.23.237.157-.1.151-.238-.157zm3.648-2.294.188.214-.136.119-.188-.214Zm.942-1.8.188.214-.136.119-.187-.214z"/></svg>

<?xml version="1.0" encoding="UTF-8"?>
<svg width="24px" fill="#44739e" height="24px" viewBox="0 0 24 24" version="1.1" xmlns="http://www.w3.org/2000/svg" xmlns:xlink="http://www.w3.org/1999/xlink">
            <path d="M 21.792,9.637 22,9.454 21.751,9.17 21.542,9.353 21,9.832 A 4.514,4.514 0 0 0 20.894,9.187 4.561,4.561 0 0 0 20.616,8.375 L 21.458,7.636 21.666,7.453 21.417,7.169 21.209,7.352 20.441,8.027 A 5.036,5.036 0 0 0 19.616,6.938 L 20.308,6.331 20.517,6.147 20.268,5.864 20.059,6.047 19.341,6.678 A 6.631,6.631 0 0 0 18.086,5.808 L 18.737,5.237 18.946,5.054 18.7,4.77 18.491,4.953 17.725,5.626 C 17.571,5.555 17.45,5.507 17.375,5.479 A 6.728,6.728 0 0 0 16.145,5.15 L 16.771,4.6 16.979,4.417 16.73,4.133 16.522,4.317 15.652,5.081 A 6.683,6.683 0 0 0 14.32,5.068 v 0 L 14.777,4.668 14.985,4.485 14.73,4.2 14.522,4.383 13.61,5.183 A 3.538,3.538 0 0 0 12.521,5.63 L 12.684,5.356 12.826,5.118 12.5,4.926 12.359,5.164 11.682,6.3 l 0.1,0.058 a 2.867,2.867 0 0 0 -0.4,1.788 l -0.185,0.163 0.239,0.272 a 5.577,5.577 0 0 0 0.159,0.667 3.686,3.686 0 0 0 0.351,0.816 l -0.183,0.16 0.249,0.284 0.145,-0.128 a 5.692,5.692 0 0 0 0.77,0.8 c 0.142,0.128 0.28,0.254 0.412,0.388 l -0.153,0.134 0.249,0.284 0.153,-0.134 a 2.664,2.664 0 0 1 0.455,0.861 3.469,3.469 0 0 1 0.138,0.639 l -0.268,0.235 0.249,0.284 0.048,-0.042 a 4.562,4.562 0 0 1 -0.281,1.559 l -0.021,0.057 -0.331,0.29 0.133,0.152 a 3.467,3.467 0 0 1 -0.946,1.163 l 0.257,-0.637 0.1,-0.258 -0.35,-0.14 -0.1,0.257 -0.44,1.1 a 3.027,3.027 0 0 1 -1.647,0.2 l 0.765,-0.672 0.208,-0.183 -0.249,-0.283 -0.209,0.183 -0.955,0.838 A 1.86,1.86 0 0 1 9.508,17.067 1.591,1.591 0 0 1 9.086,16.389 l 0.913,-0.8 0.208,-0.183 L 9.958,15.122 9.75,15.305 8.988,15.974 A 9.431,9.431 0 0 1 8.909,14.8 Q 8.9,14.5 8.892,14.214 L 9.773,13.44 9.981,13.257 9.732,12.973 9.524,13.156 8.879,13.723 C 8.863,13.117 8.851,12.594 8.841,12.142 L 9.7,11.388 9.908,11.205 9.659,10.921 9.451,11.104 8.83,11.649 V 11.418 C 8.821,11.001 8.814,10.661 8.806,10.378 L 9.582,9.696 9.791,9.513 9.542,9.229 9.333,9.412 8.79,9.89 A 3.762,3.762 0 0 0 8.59,8.645 C 8.563,8.567 8.534,8.49 8.503,8.412 L 9.274,7.735 9.483,7.552 9.234,7.268 9.025,7.451 8.345,8.051 A 6.679,6.679 0 0 0 7.545,6.774 L 8.445,5.981 8.654,5.798 8.404,5.515 8.2,5.692 7.3,6.479 A 4.652,4.652 0 0 0 6.036,5.454 L 6.736,4.837 6.944,4.654 6.7,4.37 6.492,4.553 5.657,5.286 A 1.849,1.849 0 0 0 4.657,5.2 1.728,1.728 0 0 0 4.044,5.469 L 4.179,5.122 4.279,4.864 3.927,4.727 3.827,4.985 3.347,6.2 A 3.579,3.579 0 0 0 2.8,7.682 l -0.216,0.19 0.2,0.224 A 3.445,3.445 0 0 0 3.276,9.7 l -0.058,0.051 0.25,0.284 0.01,-0.009 a 10.94,10.94 0 0 0 0.672,0.882 4.576,4.576 0 0 0 0.458,0.49 l -0.116,0.1 0.249,0.283 0.159,-0.139 a 2.741,2.741 0 0 1 0.609,0.637 5.477,5.477 0 0 1 0.532,0.9 l -0.192,0.169 0.249,0.284 0.095,-0.084 a 3.984,3.984 0 0 1 0.229,1.761 l -0.279,0.245 0.211,0.24 a 3.8,3.8 0 0 1 -0.279,0.905 l -0.581,0.51 0.151,0.172 a 2.759,2.759 0 0 1 -0.515,0.47 2.863,2.863 0 0 1 -0.574,0.312 l 0.454,-0.4 0.208,-0.183 -0.249,-0.284 -0.208,0.183 -1,0.875 v 0 A 3.861,3.861 0 0 1 2.4,18.257 l 0.86,-0.756 0.209,-0.183 -0.25,-0.284 -0.208,0.183 -1,0.875 0.054,0.063 L 2.052,18.149 2,18.3 a 4.038,4.038 0 0 0 1.894,0.212 l 0.121,0.137 0.238,-0.21 A 2.96,2.96 0 0 0 5.222,17.992 2.884,2.884 0 0 0 5.797,17.456 L 6.739,16.629 6.947,16.446 6.7,16.16 6.492,16.343 6.343,16.473 A 4.25,4.25 0 0 0 6.53,15.726 L 7.39,14.971 7.598,14.788 7.347,14.5 7.139,14.683 6.592,15.163 A 4.154,4.154 0 0 0 6.321,13.44 L 7.094,12.761 7.302,12.578 7.053,12.3 6.845,12.483 6.166,13.083 A 5.721,5.721 0 0 0 5.638,12.194 2.887,2.887 0 0 0 5.021,11.543 L 5.737,10.915 5.945,10.732 5.7,10.443 5.491,10.626 4.732,11.294 A 4.406,4.406 0 0 1 4.277,10.808 10.533,10.533 0 0 1 3.6,9.92 L 4.464,9.161 4.672,8.978 4.422,8.7 4.214,8.883 3.4,9.594 A 3.262,3.262 0 0 1 2.94,8.061 L 3.829,7.281 4.037,7.1 3.788,6.816 3.58,7 2.986,7.522 A 3.424,3.424 0 0 1 3.486,6.28 L 3.686,6.359 3.917,5.77 A 1.682,1.682 0 0 1 4.68,5.358 1.662,1.662 0 0 1 5.513,5.409 L 5.488,5.431 5.737,5.714 5.905,5.567 A 4.016,4.016 0 0 1 6.836,6.235 6.436,6.436 0 0 1 8.221,8.154 L 8.031,8.322 8.28,8.606 8.38,8.52 c 0.022,0.057 0.043,0.115 0.063,0.173 a 3.956,3.956 0 0 1 0.191,1.328 l -0.3,0.262 0.249,0.283 0.064,-0.056 c 0.006,0.255 0.013,0.553 0.02,0.907 l 0.008,0.365 -0.22,0.193 0.229,0.261 c 0.011,0.463 0.023,1 0.04,1.619 l -0.2,0.172 0.207,0.234 q 0.008,0.261 0.015,0.54 a 8.43,8.43 0 0 0 0.1,1.292 l -0.093,0.082 0.154,0.175 a 1.784,1.784 0 0 0 0.491,0.829 2.066,2.066 0 0 0 0.85,0.474 l 0.1,0.119 0.082,-0.072 a 3.191,3.191 0 0 0 1.818,-0.166 l 0.274,0.11 0.129,-0.32 a 3.418,3.418 0 0 0 1.168,-1.306 v 0 l 0.995,-0.874 0.209,-0.184 -0.249,-0.283 -0.209,0.183 -0.422,0.371 a 4.675,4.675 0 0 0 0.216,-1.54 l 0.791,-0.7 0.209,-0.183 -0.249,-0.283 -0.209,0.183 -0.584,0.513 a 3.537,3.537 0 0 0 -0.13,-0.562 2.851,2.851 0 0 0 -0.486,-0.918 l 0.723,-0.635 0.208,-0.183 -0.249,-0.283 -0.208,0.183 -0.724,0.635 c -0.135,-0.139 -0.278,-0.268 -0.424,-0.4 A 5.507,5.507 0 0 1 12.271,10.272 L 13.001,9.63 13.209,9.447 12.96,9.163 12.752,9.346 12.061,9.953 A 3.537,3.537 0 0 1 11.74,9.2 5.374,5.374 0 0 1 11.574,8.471 L 12.435,7.715 12.643,7.532 12.394,7.248 12.186,7.432 11.53,8.007 a 2.676,2.676 0 0 1 0.376,-1.571 l 0.09,0.053 0.3,-0.505 a 3.067,3.067 0 0 1 1.3,-0.643 l 0.169,0.193 0.329,-0.289 c 0.077,-0.01 0.153,-0.019 0.226,-0.026 a 6.54,6.54 0 0 1 1.227,0 l 0.213,0.244 0.217,-0.19 a 6.757,6.757 0 0 1 1.327,0.342 c 0.062,0.024 0.156,0.061 0.275,0.114 l -0.1,0.087 0.249,0.283 0.217,-0.191 a 6.454,6.454 0 0 1 1.262,0.863 l -0.157,0.138 0.249,0.284 0.184,-0.162 a 4.906,4.906 0 0 1 0.822,1.091 l -0.106,0.093 0.249,0.283 0.029,-0.025 a 4.362,4.362 0 0 1 0.249,0.739 4.421,4.421 0 0 1 0.111,0.739 l -0.3,0.265 0.249,0.284 0.057,-0.05 a 4.986,4.986 0 0 1 -0.211,1.2 l -0.352,0.31 0.174,0.2 a 6.861,6.861 0 0 1 -0.607,1.157 l -0.509,0.447 0.1,0.117 c -0.174,0.219 -0.3,0.348 -0.32,0.37 a 5.094,5.094 0 0 1 -0.461,0.417 l 0.221,-0.828 0.072,-0.268 -0.365,-0.1 -0.071,0.268 -0.34,1.27 a 9.758,9.758 0 0 1 -0.869,0.476 c -0.158,0.08 -0.31,0.157 -0.456,0.238 l 0.187,-0.285 0.153,-0.232 -0.316,-0.208 -0.152,0.232 -0.728,1.108 0.041,0.026 a 2.082,2.082 0 0 0 -0.333,0.581 2.949,2.949 0 0 0 -0.188,1.117 l -0.249,0.218 0.249,0.284 0.047,-0.041 a 2,2 0 0 0 0.613,1.166 l -0.166,0.145 0.249,0.283 0.25,-0.219 a 2.4,2.4 0 0 0 0.981,0.188 3.514,3.514 0 0 0 0.532,-0.042 l 0.064,0.073 0.121,-0.106 a 4.262,4.262 0 0 0 1.3,-0.5 l -0.014,0.052 0.364,0.1 0.13,-0.475 a 4.276,4.276 0 0 0 0.9,-0.948 l 0.28,0.03 0.143,-1.318 0.03,-0.275 -0.376,-0.041 -0.03,0.276 -0.127,1.18 h -0.008 a 4.089,4.089 0 0 1 -0.743,0.838 l 0.148,-0.54 0.073,-0.268 -0.364,-0.1 -0.073,0.268 -0.275,1 a 4.16,4.16 0 0 1 -1.106,0.5 l 0.619,-0.544 0.208,-0.183 -0.249,-0.284 -0.208,0.183 -1,0.875 0.059,0.067 a 2.609,2.609 0 0 1 -1.256,-0.118 l 0.615,-0.54 0.208,-0.183 -0.249,-0.284 -0.208,0.183 -0.71,0.624 a 1.862,1.862 0 0 1 -0.591,-1.185 l 0.807,-0.709 0.208,-0.183 -0.249,-0.283 -0.209,0.183 -0.584,0.513 a 2.743,2.743 0 0 1 0.174,-0.917 1.944,1.944 0 0 1 0.318,-0.55 l 0.142,0.093 0.339,-0.516 a 7.019,7.019 0 0 1 0.729,-0.4 9.221,9.221 0 0 0 0.991,-0.555 l 0.168,0.045 0.053,-0.2 a 5.285,5.285 0 0 0 0.643,-0.558 c 0.02,-0.021 0.142,-0.147 0.313,-0.36 l 0.04,0.046 0.995,-0.875 L 20.8,13 l -0.249,-0.284 -0.209,0.183 -0.095,0.084 a 6.671,6.671 0 0 0 0.383,-0.808 l 0.9,-0.794 0.208,-0.183 -0.249,-0.284 -0.208,0.183 -0.427,0.375 a 5.016,5.016 0 0 0 0.157,-1.157 z M 21.745,9.237 21.933,9.451 21.8,9.57 21.612,9.356 Z m -0.336,-2 0.188,0.214 L 21.461,7.57 21.273,7.356 Z M 20.26,5.937 20.448,6.15 20.312,6.27 20.124,6.056 Z M 18.689,4.837 18.877,5.051 18.741,5.17 18.553,4.956 Z M 16.72,4.2 16.908,4.414 16.772,4.533 16.584,4.32 Z m -2,0.067 0.188,0.214 L 14.772,4.6 14.585,4.386 Z M 11.305,16.5 11.493,16.714 11.357,16.833 11.169,16.62 Z M 9.955,15.187 10.143,15.401 10.007,15.52 9.82,15.3 Z M 9.727,13.039 9.914,13.253 9.779,13.372 9.591,13.158 Z M 9.653,10.987 9.841,11.201 9.705,11.32 9.518,11.1 Z M 9.532,9.292 9.72,9.506 9.584,9.625 9.4,9.411 Z M 9.232,7.331 9.42,7.545 9.284,7.664 9.093,7.45 Z M 8.4,5.575 8.588,5.789 8.452,5.909 8.268,5.7 Z M 6.692,4.437 6.88,4.651 6.744,4.77 6.556,4.556 Z M 4.964,17.372 5.152,17.586 5.016,17.705 4.828,17.491 Z M 3.215,17.1 3.403,17.314 3.267,17.433 3.079,17.219 Z M 6.692,16.226 6.88,16.439 6.744,16.559 6.556,16.345 Z M 7.341,14.57 7.529,14.784 7.393,14.903 7.206,14.689 Z M 7.047,12.364 7.235,12.578 7.1,12.7 6.912,12.486 Z M 5.69,10.51 5.878,10.724 5.742,10.843 5.554,10.629 Z M 4.417,8.761 4.605,8.975 4.469,9.094 4.281,8.881 Z M 3.783,6.881 3.97,7.1 3.835,7.219 3.647,7 Z M 3.951,4.788 4.216,4.888 4.15,5.057 3.885,4.957 Z M 12.8,16.079 13.064,16.185 13,16.353 12.735,16.246 Z m 1.976,-1.332 0.188,0.213 -0.136,0.12 -0.188,-0.214 z m 0.336,-2.149 0.188,0.214 -0.136,0.12 -0.188,-0.214 z m -0.727,-1.885 0.188,0.214 -0.135,0.12 -0.188,-0.214 z M 12.966,9.237 13.153,9.451 13.018,9.57 12.83,9.356 Z M 12.4,7.322 12.588,7.536 12.452,7.655 12.265,7.441 Z M 12.518,4.991 12.762,5.137 12.67,5.292 12.425,5.147 Z m 6.113,8.555 0.275,0.074 -0.047,0.174 -0.275,-0.073 z m 2.388,3.162 0.283,0.031 -0.019,0.179 L 21,16.888 Z m -1.061,1.392 0.275,0.075 -0.048,0.175 -0.275,-0.075 z m -0.914,0.764 0.188,0.214 -0.136,0.119 -0.188,-0.214 z m -1.827,0 0.188,0.214 -0.136,0.119 -0.187,-0.214 z m -0.743,-1.554 0.188,0.214 -0.136,0.12 -0.188,-0.214 z m 0.426,-2.23 0.237,0.157 -0.1,0.151 -0.238,-0.157 z M 20.548,12.786 20.736,13 20.6,13.119 20.412,12.905 Z m 0.942,-1.8 0.188,0.214 -0.136,0.119 -0.187,-0.214 z"/>

</svg>
